src/status/scalable/indicator-notification-unread-dnd.svg

<svg width="64" height="64" viewBox="0 0 64 64" xmlns="http://www.w3.org/2000/svg">
 <path d="m32 0c-9.695312-0.03125-17.167969 5.921875-20.601562 13.453125-2.308594 5.265625-3.40625 7.003906-3.398438 17.25v9.296875l-8 12h64l-8-12v-9.296875c0-10.242187-1.703125-13.464844-3.398438-16.90625-3.90625-7.699219-11.09375-13.828125-20.601562-13.796875zm-0.007812 9.476562c4.273437 0 7.695312 3.507813 7.695312 7.804688v3.734375c2.128906 0 3.84375 1.71875 3.84375 3.84375v11.539063c0 2.128906-1.71875 3.84375-3.84375 3.84375h-15.375c-2.128906 0-3.84375-1.71875-3.84375-3.84375v-11.539063c0-2.128906 1.71875-3.84375 3.84375-3.84375v-3.734375c0-4.296875 3.425781-7.804688 7.679688-7.804688zm0 3.859376c-2.128907 0-3.84375 1.699218-3.84375 3.84375v3.835937h7.695312v-3.835937c0-2.152344-1.707031-3.84375-3.851562-3.84375z" fill="rgb(53.333336%, 75.294119%, 81.568629%)"/>
 <path d="m20.695312 56c1.695313 4.792969 6.222657 7.996094 11.304688 8 5.078125-0.007812 9.605469-3.210938 11.296875-8z" fill="rgb(53.333336%, 75.294119%, 81.568629%)"/>
</svg>

<svg xmlns="http://www.w3.org/2000/svg" xmlns:xlink="http://www.w3.org/1999/xlink" width="64" height="64" viewBox="0 0 64 64">
<path fill-rule="nonzero" fill="rgb(53.333336%, 75.294119%, 81.568629%)" fill-opacity="1" d="M 32 0 C 22.304688 -0.03125 14.832031 5.921875 11.398438 13.453125 C 9.089844 18.71875 7.992188 20.457031 8 30.703125 L 8 40 L 0 52 L 64 52 L 56 40 L 56 30.703125 C 56 20.460938 54.296875 17.238281 52.601562 13.796875 C 48.695312 6.097656 41.507812 -0.03125 32 0 Z M 31.992188 9.476562 C 36.265625 9.476562 39.6875 12.984375 39.6875 17.28125 L 39.6875 21.015625 C 41.816406 21.015625 43.53125 22.734375 43.53125 24.859375 L 43.53125 36.398438 C 43.53125 38.527344 41.8125 40.242188 39.6875 40.242188 L 24.3125 40.242188 C 22.183594 40.242188 20.46875 38.523438 20.46875 36.398438 L 20.46875 24.859375 C 20.46875 22.730469 22.1875 21.015625 24.3125 21.015625 L 24.3125 17.28125 C 24.3125 12.984375 27.738281 9.476562 31.992188 9.476562 Z M 31.992188 13.335938 C 29.863281 13.335938 28.148438 15.035156 28.148438 17.179688 L 28.148438 21.015625 L 35.84375 21.015625 L 35.84375 17.179688 C 35.84375 15.027344 34.136719 13.335938 31.992188 13.335938 Z M 31.992188 13.335938 "/>
<path fill-rule="nonzero" fill="rgb(53.333336%, 75.294119%, 81.568629%)" fill-opacity="1" d="M 20.695312 56 C 22.390625 60.792969 26.917969 63.996094 32 64 C 37.078125 63.992188 41.605469 60.789062 43.296875 56 Z M 20.695312 56 "/>
</svg>
